src/img/icons/soc_8.svg

<svg width="50" height="50" viewBox="0 0 50 50" fill="none" xmlns="http://www.w3.org/2000/svg">
<g id="3">
<rect id="Rectangle 18623" x="0.5" y="0.5" width="49" height="49" rx="24.5" stroke="#E4DEE0"/>
<path id="Vector" d="M20.633 28.8632L20.269 33.8888C20.7897 33.8888 21.0152 33.6692 21.2857 33.4055L23.7269 31.115L28.7854 34.7519C29.7131 35.2595 30.3667 34.9922 30.617 33.914L33.9374 18.6392C34.2317 17.2928 33.4424 16.7654 32.5385 17.0957L13.0214 24.4316C11.6894 24.9392 11.7096 25.6682 12.795 25.9985L17.7847 27.5222L29.3748 20.4023C29.9203 20.0477 30.4162 20.2439 30.0083 20.5985L20.633 28.8632Z" fill="#AE9BA5"/>
</g>
</svg>

<svg xmlns="http://www.w3.org/2000/svg" width="50" height="50" fill="none">
  <rect width="49" height="49" x=".5" y=".5" stroke="#E4DEE0" rx="24.5"/>
  <path fill="#AE9BA5" d="m20.633 28.863-.364 5.026c.52 0 .746-.22 1.017-.483l2.44-2.291 5.06 3.637c.927.508 1.58.24 1.831-.838l3.32-15.275c.295-1.346-.495-1.874-1.398-1.543L13.02 24.432c-1.332.507-1.311 1.236-.226 1.567l4.99 1.523 11.59-7.12c.545-.354 1.041-.158.633.197l-9.375 8.264Z"/>
</svg>
